packages/picasso/src/Icon/svg/abstract16.svg

<svg xmlns="http://www.w3.org/2000/svg" viewBox="0 0 16 16">
  <path d="M8 0c6.4 0 8 1.6 8 8s-1.6 8-8 8-8-1.6-8-8 1.6-8 8-8Zm-.1 6.5c-1.2-.5-2.5-.2-3.4.6-.9.9-1.1 2.2-.6 3.4.4 1.1 1.5 1.9 2.8 1.9 1.7 0 3-1.4 3.1-3.1C9.8 8.1 9 7 7.9 6.5Zm4.4-2.7H3.8v1.5h7v7h1.5V3.8Zm-5.6 4c.8 0 1.5.7 1.6 1.5 0 .9-.7 1.6-1.6 1.6-.9 0-1.6-.7-1.6-1.6 0-.9.7-1.5 1.6-1.5Z" fill="#000"/>
</svg>

<svg width="16" height="16" viewBox="0 0 16 16" xmlns="http://www.w3.org/2000/svg"><title>  Combined Shape</title><g fill="none"><path d="M8 0C14.4 0 16 1.6 16 8 16 14.4 14.4 16 8 16 1.6 16 0 14.4 0 8 0 1.6 1.6 0 8 0ZM7.9 6.5C6.7 6 5.4 6.3 4.5 7.1 3.6 8 3.4 9.3 3.9 10.5 4.3 11.6 5.4 12.4 6.7 12.4 8.4 12.4 9.7 11 9.8 9.3 9.8 8.1 9 7 7.9 6.5ZM12.3 3.8L3.8 3.8 3.8 5.3 10.8 5.3 10.8 12.3 12.3 12.3 12.3 3.8ZM6.7 7.8C7.5 7.8 8.2 8.5 8.3 9.3 8.3 10.2 7.6 10.9 6.7 10.9 5.8 10.9 5.1 10.2 5.1 9.3 5.1 8.4 5.8 7.8 6.7 7.8Z"/></g></svg>
